satoshis-vision-conference/dist/assets/img/svg/014-pagoda-1.svg

<svg xmlns="http://www.w3.org/2000/svg" viewBox="0 0 496 496"><path d="M248 292c-13.232 0-24 10.768-24 24s10.768 24 24 24 24-10.768 24-24-10.768-24-24-24zm0 32c-4.416 0-8-3.584-8-8s3.584-8 8-8 8 3.584 8 8-3.584 8-8 8z"/><path d="M496 324v-8c0-136.752-111.248-248-248-248S0 179.248 0 316v8h184.552a63.025 63.025 0 0 0 3.168 13.304l-19.672 26.408c-5.232 7.024-8.016 14.768-8.048 22.544v.832c0 22.56 18.352 40.912 40.904 40.912h94.184c22.56 0 40.912-18.352 40.912-40.904v-.984c-.032-7.616-2.816-15.36-8.048-22.4l-19.672-26.408A63.902 63.902 0 0 0 311.448 324H496zm-36.872-104.112l-15.288 6.328L449.968 241l15.264-6.32c8.624 22.952 13.76 47.6 14.64 73.32h-112.28c-.704-10.56-2.736-20.744-6.008-30.392l74.152-30.712-6.128-14.784-74.192 30.728a120.352 120.352 0 0 0-17.224-25.736l79.32-79.32c17.016 18.224 31.128 39.168 41.616 62.104zm-52.952-73.376L326.888 225.8a120.352 120.352 0 0 0-25.736-17.224l42.944-103.672c22.936 10.488 43.864 24.6 62.08 41.608zm-90.592 90.6l-28.4 28.4a64.5 64.5 0 0 0-7.512-5.048l15.36-37.096a104.717 104.717 0 0 1 20.552 13.744zM256 84.2c25.712.88 50.368 5.952 73.32 14.568l-42.928 103.64c-9.648-3.272-19.832-5.304-30.392-6.008V84.2zm0 128.208c8.408.648 16.536 2.248 24.272 4.784l-15.384 37.144A62.64 62.64 0 0 0 256 252.56v-40.152zm-16-128.2v112.2c-10.56.704-20.744 2.736-30.392 6.008L166.68 98.776c22.952-8.616 47.608-13.688 73.32-14.568zm-24.272 132.984c7.736-2.536 15.864-4.136 24.272-4.784v40.152a63.091 63.091 0 0 0-8.888 1.776l-15.384-37.144zm.6 43.264a65.184 65.184 0 0 0-7.512 5.048l-28.4-28.4a104.129 104.129 0 0 1 20.552-13.744l15.36 37.096zm-64.424-155.552l42.944 103.672a120.352 120.352 0 0 0-25.736 17.224l-79.288-79.288c18.216-17.008 39.144-31.128 62.08-41.608zM128.4 308H16.136c.872-25.72 6.016-50.36 14.632-73.32l103.64 42.928c-3.272 9.648-5.304 19.832-6.008 30.392zm-91.528-88.104c10.48-22.944 24.6-43.888 41.608-62.104l79.32 79.32a120.352 120.352 0 0 0-17.224 25.736L36.872 219.896zm149.472 79.216a62.755 62.755 0 0 0-1.776 8.88h-40.152c.648-8.408 2.248-16.536 4.784-24.272l12.512 5.184 6.128-14.784-12.472-5.152a104.717 104.717 0 0 1 13.744-20.552l28.4 28.4a64.5 64.5 0 0 0-5.048 7.512l-13.648-5.656-6.128 14.784 13.656 5.656zM176 387.096v-.928c.016-5.272 2.664-9.92 4.872-12.888l15.048-20.208a64.484 64.484 0 0 0 15.224 15.168l-26.712 37.4c-5.128-4.576-8.432-11.152-8.432-18.544zM240 412h-39.096c-.432 0-.84-.104-1.272-.128L225.4 375.8a63.064 63.064 0 0 0 14.6 3.64V412zm-40-96c0-26.472 21.528-48 48-48s48 21.528 48 48-21.528 48-48 48-48-21.528-48-48zm95.096 96H256v-32.552c5.08-.64 9.96-1.88 14.6-3.64l25.768 36.072c-.432.016-.84.12-1.272.12zm20.032-38.736c2.208 2.976 4.856 7.632 4.872 13v.832c0 7.392-3.304 13.976-8.432 18.536l-26.712-37.4a64.484 64.484 0 0 0 15.224-15.168l15.048 20.2zm-11.584-88.936a65.184 65.184 0 0 0-5.048-7.512l28.4-28.4a104.129 104.129 0 0 1 13.744 20.552l-37.096 15.36zm6.12 14.792l37.144-15.384c2.536 7.736 4.136 15.864 4.784 24.272H311.44c-.376-3.04-.984-6-1.776-8.888z"/></svg>

<?xml version="1.0" encoding="iso-8859-1"?>
<!-- Generator: Adobe Illustrator 19.0.0, SVG Export Plug-In . SVG Version: 6.00 Build 0)  -->
<svg xmlns="http://www.w3.org/2000/svg" xmlns:xlink="http://www.w3.org/1999/xlink" version="1.1" id="Capa_1" x="0px" y="0px" viewBox="0 0 496 496" style="enable-background:new 0 0 496 496;" xml:space="preserve">
<g>
	<g>
		<g>
			<path d="M248,292c-13.232,0-24,10.768-24,24s10.768,24,24,24s24-10.768,24-24S261.232,292,248,292z M248,324     c-4.416,0-8-3.584-8-8c0-4.416,3.584-8,8-8s8,3.584,8,8C256,320.416,252.416,324,248,324z"/>
			<path d="M496,324v-8c0-136.752-111.248-248-248-248S0,179.248,0,316v8h184.552c0.576,4.608,1.656,9.048,3.168,13.304     l-19.672,26.408c-5.232,7.024-8.016,14.768-8.048,22.544v0.832c0,22.56,18.352,40.912,40.904,40.912h94.184     c22.56,0,40.912-18.352,40.912-40.904v-0.984c-0.032-7.616-2.816-15.36-8.048-22.4l-19.672-26.408     c1.504-4.248,2.584-8.696,3.168-13.304H496z M459.128,219.888l-15.288,6.328L449.968,241l15.264-6.32     c8.624,22.952,13.76,47.6,14.64,73.32h-112.28c-0.704-10.56-2.736-20.744-6.008-30.392l74.152-30.712l-6.128-14.784     l-74.192,30.728c-4.64-9.336-10.424-17.968-17.224-25.736l79.32-79.32C434.528,176.008,448.64,196.952,459.128,219.888z      M406.176,146.512L326.888,225.8c-7.768-6.8-16.4-12.584-25.736-17.224l42.944-103.672     C367.032,115.392,387.96,129.504,406.176,146.512z M315.584,237.112l-28.4,28.4c-2.384-1.848-4.88-3.544-7.512-5.048     l15.36-37.096C302.432,227.144,309.328,231.752,315.584,237.112z M256,84.2c25.712,0.88,50.368,5.952,73.32,14.568     l-42.928,103.64c-9.648-3.272-19.832-5.304-30.392-6.008V84.2z M256,212.408c8.408,0.648,16.536,2.248,24.272,4.784     l-15.384,37.144c-2.888-0.792-5.848-1.4-8.888-1.776V212.408z M240,84.208v112.2c-10.56,0.704-20.744,2.736-30.392,6.008     L166.68,98.776C189.632,90.16,214.288,85.088,240,84.208z M215.728,217.192c7.736-2.536,15.864-4.136,24.272-4.784v40.152     c-3.032,0.376-5.992,0.984-8.888,1.776L215.728,217.192z M216.328,260.456c-2.624,1.504-5.128,3.2-7.512,5.048l-28.4-28.4     c6.256-5.368,13.144-9.968,20.552-13.744L216.328,260.456z M151.904,104.904l42.944,103.672     c-9.336,4.64-17.968,10.424-25.736,17.224l-79.288-79.288C108.04,129.504,128.968,115.384,151.904,104.904z M128.4,308H16.136     c0.872-25.72,6.016-50.36,14.632-73.32l103.64,42.928C131.136,287.256,129.104,297.44,128.4,308z M36.872,219.896     c10.48-22.944,24.6-43.888,41.608-62.104l79.32,79.32c-6.8,7.768-12.584,16.4-17.224,25.736L36.872,219.896z M186.344,299.112     c-0.792,2.888-1.4,5.848-1.776,8.88h-40.152c0.648-8.408,2.248-16.536,4.784-24.272l12.512,5.184l6.128-14.784l-12.472-5.152     c3.776-7.4,8.384-14.296,13.744-20.552l28.4,28.4c-1.848,2.384-3.544,4.88-5.048,7.512l-13.648-5.656l-6.128,14.784     L186.344,299.112z M176,387.096v-0.928c0.016-5.272,2.664-9.92,4.872-12.888l15.048-20.208c4.192,5.872,9.336,11,15.224,15.168     l-26.712,37.4C179.304,401.064,176,394.488,176,387.096z M240,412h-39.096c-0.432,0-0.84-0.104-1.272-0.128L225.4,375.8     c4.64,1.76,9.52,3.008,14.6,3.64V412z M200,316c0-26.472,21.528-48,48-48s48,21.528,48,48s-21.528,48-48,48S200,342.472,200,316z      M295.096,412H256v-32.552c5.08-0.64,9.96-1.88,14.6-3.64l25.768,36.072C295.936,411.896,295.528,412,295.096,412z      M315.128,373.264c2.208,2.976,4.856,7.632,4.872,13v0.832c0,7.392-3.304,13.976-8.432,18.536l-26.712-37.4     c5.888-4.168,11.032-9.296,15.224-15.168L315.128,373.264z M303.544,284.328c-1.504-2.624-3.2-5.128-5.048-7.512l28.4-28.4     c5.368,6.256,9.968,13.144,13.744,20.552L303.544,284.328z M309.664,299.12l37.144-15.384c2.536,7.736,4.136,15.864,4.784,24.272     H311.44C311.064,304.968,310.456,302.008,309.664,299.12z"/>
		</g>
	</g>
</g>
<g>
</g>
<g>
</g>
<g>
</g>
<g>
</g>
<g>
</g>
<g>
</g>
<g>
</g>
<g>
</g>
<g>
</g>
<g>
</g>
<g>
</g>
<g>
</g>
<g>
</g>
<g>
</g>
<g>
</g>
</svg>
